svg/capacitor.svg

<svg viewBox="0 0 20 20" xmlns="http://www.w3.org/2000/svg">
<rect width="100%" height="100%" fill="#119EFF"/>
<path d="M4.83569 5.67078L2.5182 7.99119L6.09215 11.5759L2.5 15.1788L4.81024 17.5002L8.40963 13.8963L11.9895 17.4745L14.307 15.154L4.83569 5.67078Z" fill="white"/>
<path d="M10.7334 11.5759L8.40967 13.8963L11.9896 17.4745L14.307 15.1541L10.7334 11.5759Z" fill="#E3F4FF"/>
<path d="M10.7334 11.5759L8.40967 13.8963L9.30418 14.7859L10.7334 11.5759Z" fill="#B9E3FF"/>
<path d="M13.9007 8.41708L17.5001 4.81316L15.1816 2.5L11.5832 6.09668L8.00304 2.51822L5.68555 4.83864L15.1569 14.3219L17.4744 12.0015L13.9007 8.41708Z" fill="white"/>
<path d="M9.25949 8.41718L11.5832 6.09677L8.00304 2.51831L5.68555 4.83873L9.25949 8.41718Z" fill="#E3F4FF"/>
<path d="M9.25928 8.41711L11.583 6.09671L10.6883 5.20691L9.25928 8.41711Z" fill="#B9E3FF"/>
</svg>

<svg xmlns="http://www.w3.org/2000/svg" viewBox="0 0 20 20">
  <rect width="100%" height="100%" fill="#119EFF"/>
  <path fill="#fff" d="M4.84 5.67 2.52 8l3.57 3.59-3.59 3.6 2.31 2.32 3.6-3.6 3.58 3.57 2.32-2.32-9.47-9.48Z"/>
  <path fill="#E3F4FF" d="M10.73 11.58 8.41 13.9l3.58 3.57 2.32-2.32-3.58-3.57Z"/>
  <path fill="#B9E3FF" d="M10.73 11.58 8.41 13.9l.9.89 1.42-3.21Z"/>
  <path fill="#fff" d="m13.9 8.42 3.6-3.6-2.32-2.32-3.6 3.6L8 2.52 5.7 4.84l9.47 9.48L17.47 12 13.9 8.42Z"/>
  <path fill="#E3F4FF" d="m9.26 8.42 2.32-2.32L8 2.52 5.7 4.84l3.57 3.58Z"/>
  <path fill="#B9E3FF" d="m9.26 8.42 2.32-2.32-.9-.9-1.42 3.22Z"/>
</svg>
